X:050
T: Fain to Follow Me
N: O'Farrell's Pocket Companion v.1 (Sky ed. p.39)
M: 6/8
L: 1/8
R: jig
Q: 320
K: D
D|F/G/AA d2f|eEE E2D|F/G/AA ded|c>bc dAF|GeG FdF|
eEE E2D|F/G/AA d2A|FDD D2||
P:2
z|F/G/AA d2f|eEE E2D|F/G/AA ded|cBc d2d| cBA BAF|
FdF E2d|F/G/AA d2A|FDD D2||
P:3
g|fab afd|g2f e2d|fab afd|afb gfd|gab afd|
afb afd|gab afd|gaf eag|fdf geg|fdd d2||
